CSETWebApi/CSETWeb_Api/CSETWeb_ApiCore/Diagram/src/main/webapp/img/lib/mscae/SQL_Database_generic.svg

<svg xmlns="http://www.w3.org/2000/svg" width="37.486" height="49.688" viewBox="-0.5 0.5 37.486 49.688"><g fill="#0072c6"><path d="M-.5 7.288V43.4c0 3.75 8.392 6.79 18.743 6.79v-42.9H-.5z"/><path d="M17.986 50.187h.257c10.35 0 18.743-3.038 18.743-6.788V7.288h-19v42.9z"/></g><g fill="#fff"><path d="M17.986 50.187h.257c10.35 0 18.743-3.038 18.743-6.788V7.288h-19v42.9z" opacity=".15"/><path d="M36.986 7.288c0 3.75-8.392 6.788-18.743 6.788S-.5 11.037-.5 7.288 7.892.5 18.243.5s18.743 3.04 18.743 6.788"/></g><path d="M33.154 6.897c0 2.475-6.676 4.48-14.91 4.48S3.33 9.372 3.33 6.897s6.677-4.48 14.912-4.48 14.91 2.005 14.91 4.48" fill="#7fba00"/><path d="M30.03 9.634c1.952-.757 3.125-1.705 3.125-2.735 0-2.475-6.676-4.48-14.912-4.48S3.332 4.424 3.332 6.9c0 1.03 1.173 1.978 3.125 2.735 2.726-1.058 6.986-1.74 11.786-1.74s9.06.683 11.787 1.74" fill="#b8d432"/><path d="M12.3 32.354c0 1.122-.407 2-1.22 2.607s-1.938.924-3.373.924c-1.22 0-2.24-.22-3.06-.66v-2.64c.946.803 1.988 1.205 3.126 1.205.55 0 .975-.1 1.275-.33a1.03 1.03 0 0 0 .45-.875c0-.357-.144-.668-.433-.932s-.876-.605-1.76-1.023C5.5 29.784 4.6 28.628 4.6 27.166c0-1.06.393-1.912 1.18-2.553s1.83-.96 3.134-.96c1.155 0 2.1.152 2.87.454v2.466c-.797-.55-1.705-.825-2.722-.825-.5 0-.915.108-1.212.325s-.445.508-.445.87c0 .374.12.68.36.92s.73.535 1.472.887c1.106.523 1.893 1.053 2.364 1.592s.703 1.2.703 2.013zm12.717-2.672c0 1.4-.317 2.6-.95 3.62s-1.523 1.74-2.672 2.153l3.43 3.176H21.36l-2.45-2.747c-1.05-.038-1.998-.316-2.842-.833a5.22 5.22 0 0 1-1.955-2.124c-.46-.9-.7-1.902-.7-3.007 0-1.226.25-2.32.746-3.28s1.197-1.698 2.1-2.215 1.935-.775 3.102-.775c1.088 0 2.063.25 2.924.75s1.528 1.212 2.004 2.136.715 1.972.715 3.143zm-2.804.15c0-1.2-.26-2.146-.784-2.842s-1.237-1.044-2.145-1.044a2.69 2.69 0 0 0-2.219 1.047c-.555.7-.833 1.628-.833 2.788s.272 2.077.816 2.767 1.267 1.035 2.17 1.035c.92 0 1.647-.334 2.186-1.002s.8-1.584.8-2.75zm7.423-5.982v9.667h4.38v2.16h-7.044V23.85z" fill="#fff"/></svg>

<?xml version="1.0" encoding="UTF-8" standalone="no"?>
<svg
   xmlns:dc="http://purl.org/dc/elements/1.1/"
   xmlns:cc="http://creativecommons.org/ns#"
   xmlns:rdf="http://www.w3.org/1999/02/22-rdf-syntax-ns#"
   xmlns:svg="http://www.w3.org/2000/svg"
   xmlns="http://www.w3.org/2000/svg"
   xmlns:sodipodi="http://sodipodi.sourceforge.net/DTD/sodipodi-0.dtd"
   xmlns:inkscape="http://www.inkscape.org/namespaces/inkscape"
   version="1.1"
   id="Layer_1"
   x="0px"
   y="0px"
   width="37.486"
   height="49.688"
   viewBox="-0.5 0.5 37.486 49.688"
   enable-background="new -0.5 0.5 50 50"
   xml:space="preserve"
   inkscape:version="0.91 r13725"
   sodipodi:docname="Azure SQL Database (generic)_COLOR.svg"><metadata
     id="metadata25"><rdf:RDF><cc:Work
         rdf:about=""><dc:format>image/svg+xml</dc:format><dc:type
           rdf:resource="http://purl.org/dc/dcmitype/StillImage" /><dc:title></dc:title></cc:Work></rdf:RDF></metadata><defs
     id="defs23" /><sodipodi:namedview
     pagecolor="#ffffff"
     bordercolor="#666666"
     borderopacity="1"
     objecttolerance="10"
     gridtolerance="10"
     guidetolerance="10"
     inkscape:pageopacity="0"
     inkscape:pageshadow="2"
     inkscape:window-width="1920"
     inkscape:window-height="1018"
     id="namedview21"
     showgrid="false"
     fit-margin-top="0"
     fit-margin-left="0"
     fit-margin-right="0"
     fit-margin-bottom="0"
     inkscape:zoom="7.3282407"
     inkscape:cx="30.021651"
     inkscape:cy="16.6021"
     inkscape:window-x="-8"
     inkscape:window-y="-8"
     inkscape:window-maximized="1"
     inkscape:current-layer="Layer_1" /><path
     d="M -0.5,7.288 -0.5,43.399 C -0.5,47.148 7.892,50.188 18.243,50.188 L 18.243,7.288 C 18.243,7.288 -0.5,7.288 -0.5,7.288 Z"
     id="path3"
     inkscape:connector-curvature="0"
     style="fill:#0072c6" /><path
     d="M 17.986,50.187 18.243,50.187 C 28.594,50.187 36.986,47.149 36.986,43.399 L 36.986,7.288 17.986,7.288 17.986,50.187 Z"
     id="path5"
     inkscape:connector-curvature="0"
     style="fill:#0072c6" /><path
     d="M 17.986,50.187 18.243,50.187 C 28.594,50.187 36.986,47.149 36.986,43.399 L 36.986,7.288 17.986,7.288 17.986,50.187 Z"
     id="path7"
     inkscape:connector-curvature="0"
     style="opacity:0.15;fill:#ffffff" /><path
     d="M 36.986,7.288 C 36.986,11.037 28.594,14.076 18.243,14.076 7.892,14.076 -0.5,11.037 -0.5,7.288 -0.5,3.539 7.892,0.5 18.243,0.5 28.594,0.5 36.986,3.539 36.986,7.288"
     id="path9"
     inkscape:connector-curvature="0"
     style="fill:#ffffff" /><path
     d="M 33.154,6.897 C 33.154,9.372 26.478,11.376 18.243,11.376 10.008,11.376 3.331,9.372 3.331,6.897 3.331,4.423 10.008,2.418 18.243,2.418 26.478,2.418 33.154,4.423 33.154,6.897"
     id="path11"
     inkscape:connector-curvature="0"
     style="fill:#7fba00" /><path
     d="M 30.03,9.634 C 31.982,8.877 33.155,7.929 33.155,6.899 33.155,4.424 26.479,2.419 18.243,2.419 10.008,2.419 3.332,4.424 3.332,6.899 3.332,7.929 4.505,8.877 6.457,9.634 9.183,8.576 13.443,7.893 18.243,7.893 23.044,7.893 27.302,8.576 30.03,9.634"
     id="path13"
     inkscape:connector-curvature="0"
     style="fill:#b8d432" /><path
     d="M 12.29,32.354 C 12.29,33.476 11.883,34.345 11.069,34.961 10.255,35.577 9.131,35.885 7.696,35.885 6.475,35.885 5.455,35.665 4.635,35.225 L 4.635,32.585 C 5.581,33.388 6.623,33.79 7.761,33.79 8.311,33.79 8.736,33.68 9.036,33.46 9.336,33.24 9.486,32.949 9.486,32.585 9.486,32.228 9.342,31.917 9.053,31.653 8.764,31.389 8.177,31.048 7.292,30.63 5.488,29.784 4.586,28.628 4.586,27.166 4.586,26.105 4.979,25.254 5.766,24.613 6.552,23.973 7.597,23.652 8.9,23.652 10.055,23.652 11.011,23.804 11.771,24.106 L 11.771,26.572 C 10.974,26.022 10.066,25.747 9.049,25.747 8.538,25.747 8.134,25.855 7.837,26.072 7.54,26.29 7.392,26.58 7.392,26.942 7.392,27.316 7.511,27.623 7.751,27.862 7.99,28.101 8.481,28.397 9.223,28.749 10.329,29.272 11.116,29.802 11.587,30.341 12.055,30.881 12.29,31.552 12.29,32.354 Z"
     id="path15"
     inkscape:connector-curvature="0"
     style="fill:#ffffff" /><path
     d="M 25.017,29.682 C 25.017,31.073 24.7,32.281 24.068,33.303 23.435,34.326 22.545,35.043 21.396,35.456 L 24.827,38.632 21.363,38.632 18.913,35.885 C 17.863,35.847 16.915,35.569 16.071,35.052 15.227,34.536 14.575,33.827 14.116,32.928 13.657,32.029 13.427,31.026 13.427,29.921 13.427,28.695 13.676,27.602 14.173,26.642 14.671,25.682 15.37,24.944 16.272,24.427 17.174,23.911 18.207,23.652 19.374,23.652 20.462,23.652 21.437,23.902 22.298,24.403 23.158,24.903 23.826,25.615 24.302,26.539 24.779,27.463 25.017,28.511 25.017,29.682 Z M 22.213,29.831 C 22.213,28.632 21.952,27.685 21.429,26.989 20.906,26.293 20.192,25.945 19.284,25.945 18.36,25.945 17.621,26.294 17.065,26.992 16.51,27.691 16.232,28.62 16.232,29.78 16.232,30.935 16.504,31.857 17.048,32.547 17.593,33.237 18.315,33.582 19.217,33.582 20.136,33.582 20.864,33.248 21.403,32.58 21.943,31.913 22.213,30.996 22.213,29.831 Z"
     id="path17"
     inkscape:connector-curvature="0"
     style="fill:#ffffff" /><polygon
     points="35.893,23.851 35.893,33.518 40.273,33.518 40.273,35.679 33.229,35.679 33.229,23.851 "
     id="polygon19"
     style="fill:#ffffff"
     transform="translate(-6.257,0)" /></svg>
